X:1
T:Title
%%score { 1 | 2 }
L:1/8
M:4/4
K:G
V:1 treble nm="Grand Piano"
V:2 treble 
V:1
 z4 z2[Q:1/4=100] DG | B<B BB c2 B2 | [CFA]6 [CD][CDF] | [CFA]<[CFA] [CFA][CFA] [DFB]2 [CFA]2 | %4
 G6 D2 | E>E EG [Ec]2 [CE][CE] | [B,D]>[B,D] [B,D][B,G] [DB]2 [DB][Dc] | %7
 [Dd]<[DB] [DG][Ec] [DB]2 [DA]2 |[M:3/4] [B,DG]6 |] %9
V:2
 z4 z2 [G,B,][G,B,D] | [G,DG]<[G,DG] [G,DG][G,DG] [G,EG]2 [G,DG]2 | D,6 D,D, | D,<D, D,D, D,2 D,2 | %4
 [G,B,]6 [G,B,]2 | [C,G,C]>[C,G,C] [C,G,C][C,E,C] [C,G,]2 [C,G,][C,G,] | %6
 [G,,G,]>[G,,G,] [G,,G,][G,,G,] [G,,G,]2 [G,,G,][A,,F,] | %7
 [B,,G,]<[B,,G,] [B,,G,][C,G,] [D,G,]2 [D,C]2 |[M:3/4] [G,,G,]6 |] %9

